X: 43582
T: Young Prince Of Ulster, The
R: polka
M: 2/4
K: Gmajor
|:GG/A/ Bd|c2 BG|cG BG|A>G F/E/D|
G>A Bd|cc BG/B/|cB AF|1 GD ED:|2 GA Be/f/||
|:gd fg/f/|ed Be/f/|gf ed|c2 ce/f/|
ga/g/ fg/f/|ed BG/A/|BG AF|1 GA Be/f/:|2 GD ED||

